svgs/regular/memo-pad.svg

<svg xmlns="http://www.w3.org/2000/svg" viewBox="0 0 448 512"><!--! Font Awesome Pro 6.1.1 by @fontawesome - https://fontawesome.com License - https://fontawesome.com/license (Commercial License) Copyright 2022 Fonticons, Inc. --><path d="M120 320h208C341.3 320 352 309.3 352 296S341.3 272 328 272h-208C106.8 272 96 282.8 96 296S106.8 320 120 320zM120 416h112c13.25 0 24-10.75 24-24s-10.75-24-24-24h-112C106.8 368 96 378.8 96 392S106.8 416 120 416zM120 224h208C341.3 224 352 213.3 352 200S341.3 176 328 176h-208C106.8 176 96 186.8 96 200S106.8 224 120 224zM384 0H64C28.65 0 0 28.65 0 64v384c0 35.35 28.65 64 64 64h320c35.35 0 64-28.65 64-64V64C448 28.65 419.3 0 384 0zM400 448c0 8.822-7.178 16-16 16H64c-8.822 0-16-7.178-16-16V128h352V448z"/></svg>

<svg xmlns="http://www.w3.org/2000/svg" viewBox="0 0 448 512"><!--! Font Awesome Pro 6.4.2 by @fontawesome - https://fontawesome.com License - https://fontawesome.com/license (Commercial License) Copyright 2023 Fonticons, Inc. --><path d="M400 128V448c0 8.8-7.2 16-16 16H64c-8.8 0-16-7.2-16-16V128H400zM64 0C28.7 0 0 28.7 0 64V448c0 35.3 28.7 64 64 64H384c35.3 0 64-28.7 64-64V64c0-35.3-28.7-64-64-64H64zM96 200c0 13.3 10.7 24 24 24H328c13.3 0 24-10.7 24-24s-10.7-24-24-24H120c-13.3 0-24 10.7-24 24zm0 96c0 13.3 10.7 24 24 24H328c13.3 0 24-10.7 24-24s-10.7-24-24-24H120c-13.3 0-24 10.7-24 24zm0 96c0 13.3 10.7 24 24 24H232c13.3 0 24-10.7 24-24s-10.7-24-24-24H120c-13.3 0-24 10.7-24 24z"/></svg>
